X:1
T:Ma Baker's Little Acre
M:4/4
L:1/8
K:C
 CC| EG G2 GG GG| AG A2 G E3| A2 cc c2 c2| d2 d2 dc| cA| GG G2 c4|\
 EE EE G2 GE| D8-| D6 z C| E2 G2 G2 G2|A-G A2 G4| A2 c2 c2 c2| d2 d2 c2 BA|\
 G2 G2 c G3| DD DD GG B,2| C8-| C6 C2| E2 GG GG GG|A-G A2 G4| A2 c2 c2 cc|\
 d2 d2 c2 A2| z2 G2 cG GG| EE EE GG E2| D8-| D6 z C| E2 G2 G2 G2|A-G A2 G E2 G|\
 A2 cc c2 c2| d2 d2 cc A2| G2 G2 cG GG| DD DD GG B,2| C8-| C6 CC| A2 AA A2 A2|\
 A2 A2 c c2 C| G2 GG GG GG| G2 G2 c2 cA| cc cc c c3| d2 dc B2 A2| G8-|\
 G6 z C| E2 G2 G2 G2|A-G A G- G3 E| A2 c2 c2 cc| d2 d c- c2 A2| G2 G2 c- G2 E|\
 DD DD G2 B,2| C8-| C6 C2| E2 GG GG GG|A-G A2 G2 EC| A2 c2 cc c2| d2 d2 c A2 A|\
 G2 GG c3 G| EE E2 G2G-E| D8-| D8| E2 G2 G2 G2|A-G A2 G3 E| A2 c2 c2 cc|\
d-c d2 cc BA| G2 G2 cc G2| D2 DD G2 B,2| C8-| C4 A4| G2 GG c4| DD DD GG B2|\
 c8-| c6||
